images/Vector1.svg

<svg width="113" height="130" viewBox="0 0 113 130" fill="none" xmlns="http://www.w3.org/2000/svg">
<path opacity="0.5" d="M106.043 1.01853C105.66 0.283959 104.754 -0.00102807 104.02 0.38199C103.285 0.765008 103 1.67099 103.383 2.40556L106.043 1.01853ZM71.8982 67.8421L71.6 66.372L71.8982 67.8421ZM1.06805 116.785C0.421616 117.303 0.317558 118.247 0.835636 118.894L9.27824 129.428C9.79633 130.074 10.7404 130.178 11.3868 129.66C12.0332 129.142 12.1373 128.198 11.6192 127.552L4.11467 118.188L13.4785 110.683C14.125 110.165 14.229 109.221 13.7109 108.575C13.1929 107.928 12.2488 107.824 11.6024 108.342L1.06805 116.785ZM103.383 2.40556C107.959 11.1814 111.779 24.8563 108.614 37.4303C107.041 43.6822 103.738 49.6828 97.8992 54.7289C92.0493 59.7843 83.5832 63.9412 71.6 66.372L72.1964 69.3121C84.5568 66.8048 93.5329 62.4673 99.8608 56.9987C106.2 51.5207 109.811 44.9677 111.524 38.1626C114.931 24.6227 110.815 10.1708 106.043 1.01853L103.383 2.40556ZM71.6 66.372C56.6438 69.406 46.1615 67.2532 39.3894 62.8613C32.6254 58.4747 29.3767 51.7403 29.0583 45.1774C28.7382 38.5809 31.3756 32.2669 36.259 28.6632C41.0773 25.1076 48.3819 23.9782 57.8834 28.3259L59.1317 25.5979C48.8724 20.9035 40.3629 21.9064 34.4776 26.2493C28.6573 30.5444 25.7014 37.8954 26.0618 45.3228C26.4238 52.7836 30.1294 60.4316 37.757 65.3783C45.3764 70.3197 56.7229 72.451 72.1964 69.3121L71.6 66.372ZM57.8834 28.3259C67.2567 32.6148 72.538 40.566 74.2018 50.0949C75.8731 59.6668 73.8822 70.8346 68.6097 81.3072C58.0768 102.228 34.6271 120.042 2.17046 116.465L1.84178 119.446C35.7105 123.18 60.2723 104.539 71.2893 82.6563C76.7917 71.7271 78.9603 59.906 77.1571 49.5789C75.3464 39.2089 69.5193 30.351 59.1317 25.5979L57.8834 28.3259Z" fill="#D26D60"/>
</svg>

<svg xmlns="http://www.w3.org/2000/svg" width="113" height="130" fill="none"><path fill="#D26D60" d="M106.043 1.019a1.5 1.5 0 1 0-2.66 1.387zM71.898 67.842l-.298-1.47zm-70.83 48.943a1.5 1.5 0 0 0-.232 2.109l8.442 10.534a1.5 1.5 0 0 0 2.341-1.876l-7.504-9.364 9.364-7.505a1.5 1.5 0 1 0-1.877-2.341zM103.383 2.405c4.576 8.776 8.396 22.451 5.231 35.025-1.573 6.252-4.876 12.253-10.715 17.299-5.85 5.055-14.316 9.212-26.299 11.643l.596 2.94C84.556 66.805 93.533 62.467 99.861 57c6.339-5.478 9.95-12.031 11.663-18.836 3.407-13.54-.709-27.992-5.481-37.144zM71.6 66.373c-14.956 3.034-25.438.881-32.21-3.51-6.765-4.387-10.013-11.122-10.332-17.685-.32-6.596 2.318-12.91 7.201-16.514 4.818-3.555 12.123-4.685 21.624-.337l1.249-2.728c-10.26-4.694-18.77-3.692-24.654.651-5.82 4.295-8.777 11.646-8.416 19.074.362 7.46 4.067 15.109 11.695 20.055 7.62 4.942 18.966 7.073 34.44 3.934zM57.883 28.326c9.374 4.289 14.655 12.24 16.319 21.769 1.671 9.572-.32 20.74-5.592 31.212-10.533 20.921-33.983 38.735-66.44 35.158l-.328 2.981c33.869 3.734 58.43-14.907 69.447-36.79 5.503-10.929 7.671-22.75 5.868-33.077-1.81-10.37-7.638-19.228-18.025-23.981z" opacity=".5"/></svg>
